assets/like-button-intro/vocus.svg

<svg width="140" height="26" viewBox="0 0 140 26" fill="none" xmlns="http://www.w3.org/2000/svg">
<path d="M46.8907 19.6987L41.1341 5.38044C40.916 4.82243 40.3836 4.45437 39.7894 4.45068H36.9709L45.3986 24.2545H48.2999L56.7736 4.45068H54.0104C53.4162 4.45437 52.8838 4.82243 52.6657 5.38044L46.8907 19.6987Z" fill="#FF485A"/>
<path fill-rule="evenodd" clip-rule="evenodd" d="M61.0704 7.03058C62.9753 5.10768 65.5653 4.0374 68.2591 4.05992C70.9439 4.02494 73.5298 5.08097 75.4353 6.99046C77.3408 8.89996 78.4058 11.5026 78.3907 14.2129V14.2873C78.411 19.9357 73.8915 24.5312 68.296 24.5518C62.7004 24.5723 58.1479 20.01 58.1275 14.3616V14.2873C58.1052 11.568 59.1655 8.95348 61.0704 7.03058ZM63.4731 19.2542C64.7206 20.5835 66.4455 21.3501 68.2591 21.3813C70.0598 21.3681 71.7775 20.6151 73.0165 19.296C74.2555 17.9769 74.9089 16.2054 74.8262 14.3895V14.3151C74.8933 12.4755 74.2243 10.686 72.9699 9.34976C71.7155 8.01355 69.9812 7.24303 68.1578 7.2118C64.4736 7.2118 61.6275 10.2335 61.6275 14.2408V14.3151C61.5605 16.1449 62.2256 17.925 63.4731 19.2542Z" fill="#FF485A"/>
<path d="M96.8578 19.0757C95.5382 20.5126 93.6959 21.3452 91.7552 21.3815C89.9455 21.3454 88.2263 20.5763 86.9842 19.2473C85.7422 17.9183 85.0816 16.141 85.1512 14.3153V14.2409C85.1512 10.2988 87.9696 7.21197 91.5986 7.21197C93.3965 7.22824 95.1138 7.96782 96.3696 9.26674L96.5999 9.48988C96.7856 9.68419 97.0416 9.79394 97.3091 9.79394C97.5766 9.79394 97.8326 9.68419 98.0183 9.48988L99.6117 7.78842L99.4091 7.56528C96.6244 4.36009 92.1622 3.23483 88.2114 4.7415C84.2606 6.24817 81.6501 10.0707 81.6604 14.3339V14.4083C81.6498 18.7201 84.3383 22.5683 88.3655 24.0057C92.3926 25.443 96.8798 24.1559 99.5565 20.7957L99.7683 20.5633L98.2025 19.085C98.0293 18.9061 97.7918 18.8052 97.544 18.8052C97.2961 18.8052 97.0587 18.9061 96.8854 19.085L96.8578 19.0757Z" fill="#FF485A"/>
<path d="M133.322 12.6416H133.249C130.918 11.9256 128.708 11.2469 128.708 9.70352V9.62914C128.708 8.16942 130.043 7.19318 132.033 7.19318C133.722 7.24583 135.371 7.73221 136.822 8.60641C137.32 8.89199 137.952 8.72734 138.25 8.23451L139.3 6.46797L139.079 6.29131C137.009 4.92524 134.598 4.1775 132.125 4.13428C128.164 4.13428 125.401 6.50516 125.401 9.89877V9.97315C125.401 13.8038 129.085 14.873 131.849 15.654C134.382 16.3699 136.316 17.0486 136.316 18.685V18.7594C136.316 20.3678 134.879 21.4557 132.742 21.4557C130.72 21.4074 128.757 20.7608 127.096 19.5961C126.561 19.2273 125.831 19.3597 125.457 19.8937L124.342 21.4371L124.582 21.623C126.864 23.4347 129.673 24.4407 132.576 24.4867C136.776 24.4867 139.595 22.0693 139.595 18.4711V18.3968C139.595 14.5476 135.818 13.404 133.322 12.6416Z" fill="#FF485A"/>
<path d="M111.631 21.4561C108.574 21.4561 106.75 19.4292 106.75 16.0449V6.07788C106.75 5.2717 106.102 4.61816 105.304 4.61816H103.305V16.705C103.305 21.5212 106.262 24.6358 110.83 24.6358C112.834 24.7208 114.783 23.9673 116.218 22.5532V18.8342C115.294 20.504 113.525 21.515 111.631 21.4561Z" fill="#FF485A"/>
<path d="M119.461 4.61816H117.49V22.8786C117.495 23.6503 118.116 24.2733 118.88 24.2732H120.907V6.07788C120.907 5.2717 120.259 4.61816 119.461 4.61816Z" fill="#FF485A"/>
<path fill-rule="evenodd" clip-rule="evenodd" d="M23.2934 0.238777L0 0.23877V18.5643C0.0303525 21.8941 2.71573 24.5758 6.01447 24.5705L29.3079 24.5705V6.24501C29.2775 2.91523 26.5922 0.233529 23.2934 0.238777ZM16.1737 13.7203H6.21711C4.85739 13.6948 3.77421 12.564 3.79474 11.1913V3.95781H13.7605C15.1166 3.9883 16.1943 5.11765 16.1737 6.48675V13.7203ZM19.1211 20.7399H25.5684L25.5592 16.5002C25.5341 15.6565 24.8386 14.9918 24.0026 15.0126H17.5553V19.2616C17.5853 20.1054 18.2851 20.7661 19.1211 20.7399Z" fill="#FF485A"/>
</svg>

<svg xmlns="http://www.w3.org/2000/svg" width="140" height="25" viewBox="0 0 140 25">
    <g fill="#4A4A4A" fill-rule="nonzero">
        <path d="M46.89 19.699L41.135 5.38a1.456 1.456 0 0 0-1.345-.93h-2.818L45.4 24.256H48.3L56.774 4.45H54.01a1.456 1.456 0 0 0-1.345.93L46.89 19.698zM68.26 4.06a10 10 0 0 0-7.19 2.97 10.193 10.193 0 0 0-2.942 7.258v.074c.02 5.648 4.573 10.21 10.168 10.19 5.596-.02 10.115-4.616 10.095-10.264v-.075a10.146 10.146 0 0 0-2.956-7.222 9.954 9.954 0 0 0-7.176-2.93zm0 17.322a6.722 6.722 0 0 1-4.787-2.128 6.852 6.852 0 0 1-1.845-4.939v-.074c0-4.007 2.846-7.029 6.53-7.029A6.76 6.76 0 0 1 72.97 9.35a6.89 6.89 0 0 1 1.856 4.965v.075a6.721 6.721 0 0 1-1.81 4.906 6.593 6.593 0 0 1-4.757 2.086zM96.858 19.076a7.109 7.109 0 0 1-5.103 2.306 6.714 6.714 0 0 1-4.77-2.135 6.843 6.843 0 0 1-1.834-4.932v-.074c0-3.942 2.819-7.029 6.448-7.029a6.72 6.72 0 0 1 4.77 2.055l.231.223a.981.981 0 0 0 1.418 0l1.594-1.701-.203-.224a10.068 10.068 0 0 0-11.198-2.823c-3.95 1.506-6.56 5.329-6.55 9.592v.074c-.011 4.312 2.677 8.16 6.705 9.598a10 10 0 0 0 11.19-3.21l.212-.233-1.565-1.478a.917.917 0 0 0-1.317 0l-.028-.01zM133.322 12.642h-.073c-2.33-.716-4.541-1.395-4.541-2.938v-.075c0-1.46 1.335-2.436 3.325-2.436a9.879 9.879 0 0 1 4.79 1.414c.497.285 1.129.12 1.427-.372l1.05-1.767-.221-.176a13.038 13.038 0 0 0-6.954-2.157c-3.96 0-6.724 2.37-6.724 5.764v.074c0 3.831 3.685 4.9 6.448 5.681 2.533.716 4.467 1.395 4.467 3.031v.075c0 1.608-1.437 2.696-3.574 2.696a10.26 10.26 0 0 1-5.646-1.86 1.181 1.181 0 0 0-1.64.298l-1.114 1.543.24.186a13.195 13.195 0 0 0 7.994 2.864c4.2 0 7.019-2.417 7.019-6.016v-.074c0-3.85-3.777-4.993-6.273-5.755zM111.632 21.456c-3.058 0-4.882-2.027-4.882-5.411V6.078c0-.806-.647-1.46-1.446-1.46h-1.999v12.087c0 4.816 2.957 7.93 7.525 7.93a7.239 7.239 0 0 0 5.388-2.082v-3.719a5.066 5.066 0 0 1-4.586 2.622zM119.46 4.618h-1.97v18.26a1.397 1.397 0 0 0 1.39 1.395h2.027V6.078c0-.806-.648-1.46-1.446-1.46zM23.293.239H0v18.325c.03 3.33 2.716 6.012 6.014 6.007h23.294V6.245c-.03-3.33-2.716-6.011-6.015-6.006zm-7.12 13.481H6.218c-1.36-.025-2.443-1.156-2.422-2.529V3.958h9.966c1.356.03 2.433 1.16 2.413 2.529v7.233zm9.395 7.02h-6.447a1.526 1.526 0 0 1-1.566-1.478v-4.25h6.448a1.526 1.526 0 0 1 1.556 1.488l.01 4.24z"/>
    </g>
</svg>
